svgs/thin/circle-dollar.svg

<svg xmlns="http://www.w3.org/2000/svg" viewBox="0 0 512 512"><!--! Font Awesome Pro 6.0.0-alpha3 by @fontawesome - https://fontawesome.com License - https://fontawesome.com/license (Commercial License) --><path d="M258.1 248.3L248.6 245.6C207.6 234 187.6 222.9 192.8 194.2c4.75-26.41 36.19-39.09 80.38-32.55c9.156 1.375 20.05 4.234 34.3 8.969c4.25 1.375 8.734-.9062 10.12-5.062c1.391-4.203-.875-8.734-5.062-10.12c-15.16-5.031-26.91-8.078-36.98-9.594C271.6 145.3 267.8 145.1 264 144.8V104C264 99.58 260.4 96 256 96S248 99.58 248 104v40.25C209.2 145.2 182.3 162.2 177 191.4C168.4 239.5 215.9 252.1 244.3 261l9.594 2.656c44.5 12.27 71.11 22.03 65.34 54.11c-4.734 26.41-36.28 39.14-80.42 32.53c-14.25-2.062-30.55-7.719-44.94-12.7l-7.266-2.516c-4.094-1.406-8.719 .8125-10.16 5c-1.422 4.172 .8125 8.719 5 10.16l7.188 2.469c15.05 5.234 32.11 11.16 47.84 13.42C240.5 366.8 244.1 366.7 248 367V408C248 412.4 251.6 416 256 416s8-3.578 8-8v-40.13c38.79-.9297 65.71-18.06 70.95-47.24C343.7 271.8 298.2 259.3 258.1 248.3zM256 0C114.6 0 0 114.6 0 256s114.6 256 256 256s256-114.6 256-256S397.4 0 256 0zM256 496c-132.3 0-240-107.7-240-240S123.7 16 256 16s240 107.7 240 240S388.3 496 256 496z"/></svg>

<svg xmlns="http://www.w3.org/2000/svg" viewBox="0 0 512 512"><!-- Font Awesome Pro 6.0.0-alpha2 by @fontawesome - https://fontawesome.com License - https://fontawesome.com/license (Commercial License) --><path d="M256 16C123.451 16 16 123.451 16 256S123.451 496 256 496S496 388.549 496 256S388.549 16 256 16ZM256 480C132.486 480 32 379.514 32 256S132.486 32 256 32S480 132.486 480 256S379.514 480 256 480ZM258.109 248.25L248.609 245.609C207.562 234 187.641 222.859 192.797 194.219C197.547 167.812 228.984 155.125 273.172 161.672C282.328 163.047 293.219 165.906 307.469 170.641C311.719 172.016 316.203 169.734 317.594 165.578C318.984 161.375 316.719 156.844 312.531 155.453C297.375 150.422 285.625 147.375 275.547 145.859C271.553 145.25 267.822 145.076 264 144.756V104C264 99.578 260.422 96 256 96S248 99.578 248 104V144.246C209.248 145.172 182.268 162.197 177.047 191.375C168.391 239.547 215.891 252.984 244.266 261.016L253.859 263.672C298.359 275.938 324.969 285.703 319.203 317.781C314.469 344.188 282.922 356.922 238.781 350.313C224.531 348.25 208.234 342.594 193.844 337.609L186.578 335.094C182.484 333.688 177.859 335.906 176.422 340.094C175 344.266 177.234 348.812 181.422 350.25L188.609 352.719C203.656 357.953 220.719 363.875 236.453 366.141C240.49 366.75 244.139 366.732 248 367.047V408C248 412.422 251.578 416 256 416S264 412.422 264 408V367.869C302.795 366.939 329.711 349.811 334.953 320.625C343.719 271.844 298.234 259.312 258.109 248.25Z"/></svg>
